src/img/icons/microphone.svg

<svg width="32" height="32" viewBox="0 0 32 32" fill="none" xmlns="http://www.w3.org/2000/svg">
<path d="M15.9142 18.446C14.9261 18.446 14.0995 18.0999 13.4344 17.4077C12.7691 16.7157 12.4364 15.8698 12.4364 14.87V5.46203C12.4364 4.49929 12.7728 3.68153 13.4456 3.00877C14.1181 2.33626 14.9404 2 15.9126 2C16.8848 2 17.7077 2.33626 18.3812 3.00877C19.055 3.68153 19.3919 4.49929 19.3919 5.46203V14.87C19.3919 15.8698 19.0592 16.7157 18.3939 17.4077C17.7288 18.0999 16.9022 18.446 15.9142 18.446ZM14.9503 29.0361V24.6988C12.6182 24.4628 10.6057 23.5288 8.91264 21.8969C7.21985 20.2649 6.25276 18.2567 6.01138 15.8723C5.97021 15.5974 6.04078 15.3616 6.2231 15.165C6.40542 14.9683 6.63415 14.87 6.90929 14.87C7.18469 14.87 7.41393 14.968 7.59702 15.1638C7.78011 15.3595 7.89351 15.5962 7.93724 15.8742C8.1955 17.8876 9.08856 19.5497 10.6164 20.8605C12.144 22.171 13.9069 22.8262 15.905 22.8262C17.935 22.8262 19.709 22.1672 21.2269 20.849C22.7448 19.5308 23.6328 17.8725 23.8911 15.8742C23.9346 15.5962 24.0493 15.3595 24.2352 15.1638C24.4208 14.968 24.6513 14.87 24.9267 14.87C25.2021 14.87 25.4297 14.9683 25.6095 15.165C25.789 15.3616 25.8581 15.5974 25.817 15.8723C25.5756 18.2161 24.6149 20.2118 22.9349 21.8593C21.2546 23.5066 19.2357 24.4531 16.8781 24.6988V29.0361C16.8781 29.3097 16.7854 29.5387 16.6 29.7231C16.4146 29.9077 16.1845 30 15.9096 30C15.6347 30 15.4061 29.9077 15.2238 29.7231C15.0414 29.5387 14.9503 29.3097 14.9503 29.0361ZM15.9142 16.5182C16.3594 16.5182 16.729 16.359 17.023 16.0407C17.3171 15.7226 17.4641 15.3309 17.4641 14.8658V5.46203C17.4641 5.02732 17.3156 4.66294 17.0184 4.36888C16.7213 4.07481 16.3532 3.92778 15.9142 3.92778C15.4751 3.92778 15.107 4.07481 14.8099 4.36888C14.5128 4.66294 14.3642 5.02732 14.3642 5.46203V14.87C14.3642 15.3323 14.5112 15.7226 14.8053 16.0407C15.0994 16.359 15.469 16.5182 15.9142 16.5182Z" fill="#131212"/>
</svg>

<svg xmlns="http://www.w3.org/2000/svg" viewBox="0 0 32 32">
  <path fill="currentColor" d="M15.914 18.446c-.988 0-1.814-.346-2.48-1.038-.665-.692-.998-1.538-.998-2.538V5.462c0-.963.337-1.78 1.01-2.453C14.118 2.336 14.94 2 15.913 2c.972 0 1.795.336 2.468 1.009.674.673 1.01 1.49 1.01 2.453v9.408c0 1-.332 1.846-.997 2.538-.665.692-1.492 1.038-2.48 1.038Zm-.964 10.59V24.7c-2.332-.236-4.344-1.17-6.037-2.802-1.693-1.632-2.66-3.64-2.902-6.025a.812.812 0 0 1 .212-.707.896.896 0 0 1 .686-.295c.276 0 .505.098.688.294.183.196.297.432.34.71.258 2.014 1.152 3.676 2.68 4.986 1.527 1.311 3.29 1.966 5.288 1.966 2.03 0 3.804-.659 5.322-1.977 1.518-1.318 2.406-2.977 2.664-4.975a1.3 1.3 0 0 1 .344-.71.914.914 0 0 1 .692-.294c.275 0 .503.098.683.295a.82.82 0 0 1 .207.707c-.241 2.344-1.202 4.34-2.882 5.987-1.68 1.648-3.7 2.594-6.057 2.84v4.337a.93.93 0 0 1-.278.687.94.94 0 0 1-.69.277.938.938 0 0 1-.96-.964Zm.964-12.518c.445 0 .815-.159 1.109-.477.294-.318.441-.71.441-1.175V5.462c0-.435-.148-.8-.446-1.093a1.508 1.508 0 0 0-1.104-.441 1.51 1.51 0 0 0-1.104.44 1.477 1.477 0 0 0-.446 1.094v9.408c0 .462.147.853.441 1.17.294.319.664.478 1.11.478Z"/>
</svg>
